X: 41367
T: Turtledove, The
R: reel
M: 4/4
K: Amixolydian
cd|:e2ed c2cd|edef e2ef|g4 a4|e6 cd:|
|:e2ed c2cd|edef e2AB|c2e2 dcBG|1 A6 cd:|2 A4 A4||

